ix/music-square-remove_bold.svg

<svg viewBox="0 0 24 24" fill="none" xmlns="http://www.w3.org/2000/svg" height="1em" width="1em">
  <path d="M21.97 16.33C21.25 15.51 20.18 15 19 15C16.79 15 15 16.79 15 19C15 19.75 15.21 20.46 15.58 21.06C15.78 21.4 16.04 21.71 16.34 21.97C17.04 22.61 17.97 23 19 23C20.46 23 21.73 22.22 22.42 21.06C22.79 20.46 23 19.75 23 19C23 17.98 22.61 17.04 21.97 16.33ZM20.6 20.58C20.45 20.73 20.26 20.8 20.07 20.8C19.88 20.8 19.69 20.73 19.54 20.58L19.01 20.05L18.46 20.6C18.31 20.75 18.12 20.82 17.93 20.82C17.74 20.82 17.55 20.75 17.4 20.6C17.11 20.31 17.11 19.83 17.4 19.54L17.95 18.99L17.42 18.46C17.13 18.17 17.13 17.69 17.42 17.4C17.71 17.11 18.19 17.11 18.48 17.4L19.01 17.93L19.51 17.43C19.8 17.14 20.28 17.14 20.57 17.43C20.86 17.72 20.86 18.2 20.57 18.49L20.07 18.99L20.6 19.52C20.89 19.81 20.89 20.28 20.6 20.58Z" fill="#292D32"/>
  <path d="M12.2283 12.0703C11.8183 12.0703 11.4883 12.4003 11.4883 12.8103C11.4883 13.2203 11.8183 13.5503 12.2283 13.5503C12.6383 13.5503 12.9683 13.2203 12.9683 12.8103C12.9683 12.4003 12.6383 12.0703 12.2283 12.0703Z" fill="#292D32"/>
  <path d="M6.75953 13.0586C6.34953 13.0586 6.01953 13.3886 6.01953 13.7986C6.01953 14.2086 6.34953 14.5386 6.75953 14.5386C7.16953 14.5386 7.49953 14.2086 7.49953 13.7986C7.49953 13.3886 7.16953 13.0586 6.75953 13.0586Z" fill="#292D32"/>
  <path d="M16.19 2H7.81C7.53 2 7.26 2.01 7 2.05C3.85 2.34 2 4.45 2 7.81V16.19C2 19.55 3.85 21.66 7 21.95C7.26 21.99 7.53 22 7.81 22H13.5C13.89 22 14.14 21.56 13.99 21.2C13.7 20.51 13.5 19.71 13.5 19C13.5 15.97 15.97 13.5 19 13.5C19.76 13.5 20.5 13.65 21.18 13.95C21.55 14.11 22 13.86 22 13.46V7.81C22 4.17 19.83 2 16.19 2ZM14.48 8.05V12.81C14.48 12.82 14.47 12.83 14.47 12.85C14.45 14.07 13.46 15.06 12.23 15.06C10.99 15.06 9.99 14.05 9.99 12.82C9.99 11.58 11 10.58 12.23 10.58C12.49 10.58 12.74 10.63 12.98 10.72V9.03L9.01 10.11V13.81C9.01 13.82 9 13.83 9 13.84C8.98 15.06 7.99 16.04 6.76 16.04C5.52 16.04 4.52 15.03 4.52 13.8C4.52 12.57 5.53 11.56 6.76 11.56C7.02 11.56 7.27 11.61 7.5 11.7V9.54V7.79C7.5 6.86 8.08 6.11 8.97 5.87L11.95 5.05C12.88 4.8 13.45 5.05 13.77 5.29C14.23 5.64 14.46 6.21 14.46 6.97V8.05H14.48Z" fill="#292D32"/>
</svg>

<svg viewBox="0 0 24 24" fill="none" xmlns="http://www.w3.org/2000/svg" height="1em" width="1em">
  <path d="M21.97 16.33A3.944 3.944 0 0 0 19 15c-2.21 0-4 1.79-4 4 0 .75.21 1.46.58 2.06.2.34.46.65.76.91.7.64 1.63 1.03 2.66 1.03 1.46 0 2.73-.78 3.42-1.94.37-.6.58-1.31.58-2.06 0-1.02-.39-1.96-1.03-2.67Zm-1.37 4.25c-.15.15-.34.22-.53.22s-.38-.07-.53-.22l-.53-.53-.55.55c-.15.15-.34.22-.53.22s-.38-.07-.53-.22a.754.754 0 0 1 0-1.06l.55-.55-.53-.53a.754.754 0 0 1 0-1.06c.29-.29.77-.29 1.06 0l.53.53.5-.5c.29-.29.77-.29 1.06 0 .29.29.29.77 0 1.06l-.5.5.53.53c.29.29.29.76 0 1.06Zm-8.372-8.51c-.41 0-.74.33-.74.74s.33.74.74.74.74-.33.74-.74-.33-.74-.74-.74Zm-5.468.989c-.41 0-.74.33-.74.74s.33.74.74.74.74-.33.74-.74-.33-.74-.74-.74Z" fill="#292D32"/>
  <path d="M16.19 2H7.81c-.28 0-.55.01-.81.05-3.15.29-5 2.4-5 5.76v8.38c0 3.36 1.85 5.47 5 5.76.26.04.53.05.81.05h5.69c.39 0 .64-.44.49-.8-.29-.69-.49-1.49-.49-2.2 0-3.03 2.47-5.5 5.5-5.5.76 0 1.5.15 2.18.45.37.16.82-.09.82-.49V7.81C22 4.17 19.83 2 16.19 2Zm-1.71 6.05v4.76c0 .01-.01.02-.01.04a2.243 2.243 0 0 1-2.24 2.21c-1.24 0-2.24-1.01-2.24-2.24 0-1.24 1.01-2.24 2.24-2.24.26 0 .51.05.75.14V9.03l-3.97 1.08v3.7c0 .01-.01.02-.01.03a2.234 2.234 0 0 1-2.24 2.2c-1.24 0-2.24-1.01-2.24-2.24a2.25 2.25 0 0 1 2.24-2.24c.26 0 .51.05.74.14V7.79c0-.93.58-1.68 1.47-1.92l2.98-.82c.93-.25 1.5 0 1.82.24.46.35.69.92.69 1.68v1.08h.02Z" fill="#292D32"/>
</svg>
